illustrations/assets/Media/il_axis_media_light.svg

<svg xmlns="http://www.w3.org/2000/svg" width="231" height="160" fill="none" viewBox="0 0 231 160">
  <path fill="#F0F0F0" d="M115.612 147.8c37.749 0 68.351-30.624 68.351-68.4 0-37.7763-30.602-68.4-68.351-68.4-37.749 0-68.3507 30.6237-68.3507 68.4 0 37.776 30.6017 68.4 68.3507 68.4Z"/>
  <g filter="url(#filter0_d_3831_4960)">
    <path fill="url(#paint0_linear_3831_4960)" d="M178.664 38.6464v83.6286c0 2.948-2.42 5.376-5.359 5.376H58.9784c-2.9388 0-5.3589-2.428-5.3589-5.376V38.6464c0-2.9485 2.4201-5.3766 5.3589-5.3766H173.305c2.939 0 5.359 2.4281 5.359 5.3766Z"/>
  </g>
  <path fill="url(#paint1_linear_3831_4960)" d="M139.643 73.4594c-.665-2.458-2.216-4.5807-4.433-5.9214-2.438-1.4524-4.987-1.6759-7.758-1.8993-4.876-.5587-9.863-.6704-14.85-.4469-4.433.1117-9.531-.1118-13.6317 1.7876-5.8737 2.5696-6.6495 8.2676-6.8711 14.4124-.2217 4.5807-.2217 10.0552.9974 14.5242.9974 3.5752 3.7681 6.368 7.4254 7.15 4.655 1.118 14.629 1.341 19.505 1.229h1.33c3.879-.111 7.979-.111 11.526-1.452 2.992-1.006 4.765-2.793 5.873-5.0277 1.33-2.6814 1.663-6.0331 1.774-9.72.443-4.8042.332-10.2787-.887-14.6359Z"/>
  <path fill="#fff" d="M112.135 78.3001c0-1.4741.745-1.9655 1.954-1.1793 3.257 2.0638 6.607 4.2259 9.864 6.2896 1.21.7862 1.21 1.6707 0 2.5552-3.257 2.0638-6.514 4.2258-9.771 6.2896-1.302.7862-1.954.3931-2.047-.9828V78.3001Z"/>
  <path fill="#D0C6B8" d="M178.664 39.0681v3.8815H53.6195v-3.8815c0-2.9326 2.4202-5.3478 5.3589-5.3478H173.306c2.938 0 5.358 2.4152 5.358 5.3478Z"/>
  <path fill="#F4F1EA" d="M58.8663 40.0168c.9045 0 1.6377-.7337 1.6377-1.6388s-.7332-1.6389-1.6377-1.6389-1.6377.7338-1.6377 1.6389.7332 1.6388 1.6377 1.6388Z"/>
  <path fill="#A09F9D" d="M63.9516 40.0168c.9045 0 1.6377-.7337 1.6377-1.6388s-.7332-1.6389-1.6377-1.6389-1.6377.7338-1.6377 1.6389.7332 1.6388 1.6377 1.6388Z" opacity=".6"/>
  <path fill="#949390" d="M69.1234 40.0168c.9044 0 1.6376-.7337 1.6376-1.6388s-.7332-1.6389-1.6376-1.6389c-.9045 0-1.6377.7338-1.6377 1.6389s.7332 1.6388 1.6377 1.6388Z" opacity=".4"/>
  <defs>
    <linearGradient id="paint0_linear_3831_4960" x1="116.101" x2="116.101" y1="31.0866" y2="128.669" gradientUnits="userSpaceOnUse">
      <stop stop-color="#FDFEFF"/>
      <stop offset=".9964" stop-color="#F5F2EC"/>
    </linearGradient>
    <linearGradient id="paint1_linear_3831_4960" x1="115.925" x2="116.442" y1="59.1277" y2="88.4693" gradientUnits="userSpaceOnUse">
      <stop stop-color="#E1DAD0"/>
      <stop offset="1" stop-color="#CCC1B1"/>
    </linearGradient>
    <filter id="filter0_d_3831_4960" width="146.645" height="115.981" x="42.8195" y="33.2698" color-interpolation-filters="sRGB" filterUnits="userSpaceOnUse">
      <feFlood flood-opacity="0" result="BackgroundImageFix"/>
      <feColorMatrix in="SourceAlpha" result="hardAlpha" values="0 0 0 0 0 0 0 0 0 0 0 0 0 0 0 0 0 0 127 0"/>
      <feOffset dy="10.8"/>
      <feGaussianBlur stdDeviation="5.4"/>
      <feColorMatrix values="0 0 0 0 0.576471 0 0 0 0 0.501961 0 0 0 0 0.396078 0 0 0 0.37 0"/>
      <feBlend in2="BackgroundImageFix" result="effect1_dropShadow_3831_4960"/>
      <feBlend in="SourceGraphic" in2="effect1_dropShadow_3831_4960" result="shape"/>
    </filter>
  </defs>
</svg>

<svg width="231" height="160" viewBox="0 0 231 160" fill="none" xmlns="http://www.w3.org/2000/svg">
<path d="M115.612 147.8C153.361 147.8 183.963 117.176 183.963 79.4C183.963 41.6237 153.361 11 115.612 11C77.863 11 47.2613 41.6237 47.2613 79.4C47.2613 117.176 77.863 147.8 115.612 147.8Z" fill="#EBEBEB"/>
<g filter="url(#filter0_d_3831_4960)">
<path d="M178.664 38.6464V122.275C178.664 125.223 176.244 127.651 173.305 127.651H58.9784C56.0396 127.651 53.6195 125.223 53.6195 122.275V38.6464C53.6195 35.6979 56.0396 33.2698 58.9784 33.2698H173.305C176.244 33.2698 178.664 35.6979 178.664 38.6464Z" fill="url(#paint0_linear_3831_4960)"/>
</g>
<path d="M139.643 73.4594C138.978 71.0014 137.427 68.8787 135.21 67.538C132.772 66.0856 130.223 65.8621 127.452 65.6387C122.576 65.08 117.589 64.9683 112.602 65.1918C108.169 65.3035 103.071 65.08 98.9703 66.9794C93.0966 69.549 92.3208 75.247 92.0992 81.3918C91.8775 85.9725 91.8775 91.447 93.0966 95.916C94.094 99.4911 96.8647 102.284 100.522 103.066C105.177 104.184 115.151 104.407 120.027 104.295C120.47 104.295 120.914 104.295 121.357 104.295C125.236 104.184 129.336 104.184 132.883 102.843C135.875 101.837 137.648 100.05 138.756 97.8153C140.086 95.1339 140.419 91.7822 140.53 88.0953C140.973 83.2911 140.862 77.8166 139.643 73.4594Z" fill="url(#paint1_linear_3831_4960)"/>
<path d="M112.135 78.3001C112.135 76.826 112.88 76.3346 114.089 77.1208C117.346 79.1846 120.696 81.3467 123.953 83.4104C125.163 84.1966 125.163 85.0811 123.953 85.9656C120.696 88.0294 117.439 90.1914 114.182 92.2552C112.88 93.0414 112.228 92.6483 112.135 91.2724C112.135 90.6828 112.135 79.676 112.135 78.3001Z" fill="white"/>
<path d="M178.664 39.0681V42.9496H53.6195V39.0681C53.6195 36.1355 56.0397 33.7203 58.9784 33.7203H173.306C176.244 33.7203 178.664 36.1355 178.664 39.0681Z" fill="#D0C6B8"/>
<path d="M58.8663 40.0168C59.7708 40.0168 60.504 39.2831 60.504 38.378C60.504 37.4729 59.7708 36.7391 58.8663 36.7391C57.9618 36.7391 57.2286 37.4729 57.2286 38.378C57.2286 39.2831 57.9618 40.0168 58.8663 40.0168Z" fill="#F4F1EA"/>
<path opacity="0.6" d="M63.9516 40.0168C64.8561 40.0168 65.5893 39.2831 65.5893 38.378C65.5893 37.4729 64.8561 36.7391 63.9516 36.7391C63.0471 36.7391 62.3139 37.4729 62.3139 38.378C62.3139 39.2831 63.0471 40.0168 63.9516 40.0168Z" fill="#A09F9D"/>
<path opacity="0.4" d="M69.1234 40.0168C70.0278 40.0168 70.761 39.2831 70.761 38.378C70.761 37.4729 70.0278 36.7391 69.1234 36.7391C68.2189 36.7391 67.4857 37.4729 67.4857 38.378C67.4857 39.2831 68.2189 40.0168 69.1234 40.0168Z" fill="#949390"/>
<defs>
<filter id="filter0_d_3831_4960" x="41.6195" y="32.0698" width="149.045" height="118.381" filterUnits="userSpaceOnUse" color-interpolation-filters="sRGB">
<feFlood flood-opacity="0" result="BackgroundImageFix"/>
<feColorMatrix in="SourceAlpha" type="matrix" values="0 0 0 0 0 0 0 0 0 0 0 0 0 0 0 0 0 0 127 0" result="hardAlpha"/>
<feOffset dy="10.8"/>
<feGaussianBlur stdDeviation="6"/>
<feColorMatrix type="matrix" values="0 0 0 0 0.576471 0 0 0 0 0.501961 0 0 0 0 0.396078 0 0 0 0.24 0"/>
<feBlend mode="normal" in2="BackgroundImageFix" result="effect1_dropShadow_3831_4960"/>
<feBlend mode="normal" in="SourceGraphic" in2="effect1_dropShadow_3831_4960" result="shape"/>
</filter>
<linearGradient id="paint0_linear_3831_4960" x1="116.101" y1="31.0866" x2="116.101" y2="128.669" gradientUnits="userSpaceOnUse">
<stop stop-color="#FDFEFF"/>
<stop offset="0.9964" stop-color="#F5F2EC"/>
</linearGradient>
<linearGradient id="paint1_linear_3831_4960" x1="115.925" y1="59.1277" x2="116.442" y2="88.4693" gradientUnits="userSpaceOnUse">
<stop stop-color="#E1DAD0"/>
<stop offset="1" stop-color="#CCC1B1"/>
</linearGradient>
</defs>
</svg>
